X:1
T:Monaghan Twig [2]
M:C|
L:1/8
R:Reel
S:Kerr - Merry Melodies, vol. 4, No. 169  (c. 1880's)
Z:AK/Fiddler's Companion
K:Dmix
(3ABA (AG) FDGE|FDGF (3EBE E2|(3ABA (AG) FDGE|FDGE (3DED D2:|
|:cA (3Bcd (3dcA AB|cABG (3EGE E2|cA (3Bcd (3ecA AG|FDGE (3DED D2||

